X: 21411
T: MISS GORDON'S REEL
R: reel
B: K\"ohler's Violin Repository, v.2, 1885 p.141 #1
F: http://www.archive.org/details/klersviolinrepos02rugg
Z: 2012 John Chambers <jc:trillian.mit.edu>
M: C|
L: 1/8
K: D
uf |\
d<AA2 F<AA2 | BGGF Eeef | d<AA2 F<AA2 | Bdce fdd :| uf |
(dA)fd (cA)ge | fdAd cdeg | (dA)fd (cA)ge | fdce fddf |
(dA)fd (cA)ge | fdAd cdeg | fdec dBAG | FAce "_D.C."fd"_Fine."d |]

%%sep 2 1 500

